app/img/design.svg

<svg id="design" xmlns="http://www.w3.org/2000/svg" viewBox="0 0 31.9 40.3">
  <g id="Group_7" data-name="Group 7">
    <path id="Path_5" data-name="Path 5" d="M26,20.1h-.8v-.8a.789.789,0,0,0-.8-.8H2.5a.789.789,0,0,0-.8.8V36.1a4.225,4.225,0,0,0,4.2,4.2H21a4.225,4.225,0,0,0,4.2-4.2V31.9H26A5.911,5.911,0,0,0,31.9,26,5.977,5.977,0,0,0,26,20.1Zm0,10.1h-.8V21.8H26a4.2,4.2,0,1,1,0,8.4ZM19.3,16.8h3.4a1.02,1.02,0,0,0,.8-.5l2.6-5.2c1.7-.2,3-1.7,3.2-3.9A6.444,6.444,0,0,0,24.4.1a1.008,1.008,0,0,0-.9.3.746.746,0,0,0,0,.9c.9,1.4.4,2.2-.6,3.3A5.507,5.507,0,0,0,22,6a3.871,3.871,0,0,0-.1,2.8,3.592,3.592,0,0,0,.7,1l-3.3,4.7-.3.4-.4.6a.972.972,0,0,0-.1.9C18.6,16.7,19,16.8,19.3,16.8Zm4.2-10a4.616,4.616,0,0,1,.7-1,5.024,5.024,0,0,0,1.4-3.3,4.926,4.926,0,0,1,2,4.5c-.1,1.1-.8,2.5-2,2.5h0L24.1,9a1.555,1.555,0,0,1-.6-.8A1.4,1.4,0,0,1,23.5,6.8ZM1.3,6.8a.94.94,0,0,0-.9.1c-.3.1-.4.5-.4.8l.8,4.7L4.9,9Zm2.9,10H9.3a.86.86,0,0,0,.8-.8.86.86,0,0,0,.8.8h6.7a.789.789,0,0,0,.8-.8v-.8H16.3a.8.8,0,0,1,0-1.6h2.1V11.9H14.2a.8.8,0,0,1,0-1.6h4.2V8.4H16.3a.8.8,0,1,1,0-1.6h2.1V5H14.2a.8.8,0,1,1,0-1.6h4.2V.8a.789.789,0,0,0-.8-.8H10.9a.789.789,0,0,0-.8.8v15a.764.764,0,0,0-.2-.5L6.2,10.1,1.7,13.9l1.9,2.6A.6.6,0,0,0,4.2,16.8Z"/>
  </g>
</svg>

<?xml version="1.0" encoding="utf-8"?>
<!-- Generator: Adobe Illustrator 20.1.0, SVG Export Plug-In . SVG Version: 6.00 Build 0)  -->
<svg version="1.1" id="Layer_1" xmlns="http://www.w3.org/2000/svg" xmlns:xlink="http://www.w3.org/1999/xlink" x="0px" y="0px"
	 viewBox="0 0 31.9 40.3" style="enable-background:new 0 0 31.9 40.3;" xml:space="preserve">
<style type="text/css">
	.st0{fill:#ED527F;}
</style>
<g>
	<g>
		<path class="st0" d="M26,20.1h-0.8v-0.8c0-0.5-0.4-0.8-0.8-0.8H2.5c-0.5,0-0.8,0.4-0.8,0.8v16.8c0,2.3,1.9,4.2,4.2,4.2H21
			c2.3,0,4.2-1.9,4.2-4.2v-4.2H26c3.2,0,5.9-2.6,5.9-5.9C31.9,22.8,29.2,20.1,26,20.1z M26,30.2h-0.8v-8.4H26c2.3,0,4.2,1.9,4.2,4.2
			S28.3,30.2,26,30.2z M19.3,16.8h3.4c0.3,0,0.6-0.2,0.8-0.5l2.6-5.2c1.7-0.2,3-1.7,3.2-3.9c0.3-2.8-1.1-6.1-4.9-7.1
			c-0.3-0.1-0.7,0.1-0.9,0.3c-0.2,0.3-0.2,0.7,0,0.9c0.9,1.4,0.4,2.2-0.6,3.3C22.5,5.1,22.2,5.5,22,6c-0.4,0.9-0.4,1.9-0.1,2.8
			c0.2,0.4,0.4,0.7,0.7,1l-3.3,4.7L19,14.9l-0.4,0.6c-0.2,0.3-0.2,0.6-0.1,0.9S19,16.8,19.3,16.8z M23.5,6.8c0.1-0.3,0.4-0.6,0.7-1
			c0.6-0.8,1.5-1.9,1.4-3.3c1.6,1.1,2.1,2.9,2,4.5c-0.1,1.1-0.8,2.5-2,2.5l0,0L24.1,9c-0.3-0.2-0.5-0.5-0.6-0.8
			C23.2,7.8,23.3,7.3,23.5,6.8z M1.3,6.8C1,6.7,0.6,6.7,0.4,6.9C0.1,7,0,7.4,0,7.7l0.8,4.7L4.9,9L1.3,6.8z M4.2,16.8h5.1
			c0.4,0,0.8-0.4,0.8-0.8c0,0.4,0.4,0.8,0.8,0.8h6.7c0.5,0,0.8-0.4,0.8-0.8v-0.8h-2.1c-0.5,0-0.8-0.4-0.8-0.8c0-0.5,0.4-0.8,0.8-0.8
			h2.1v-1.7h-4.2c-0.5,0-0.8-0.4-0.8-0.8c0-0.5,0.4-0.8,0.8-0.8h4.2V8.4h-2.1c-0.5,0-0.8-0.4-0.8-0.8c0-0.5,0.4-0.8,0.8-0.8h2.1V5
			h-4.2c-0.5,0-0.8-0.4-0.8-0.8c0-0.5,0.4-0.8,0.8-0.8h4.2V0.8C18.4,0.3,18,0,17.6,0h-6.7c-0.5,0-0.8,0.4-0.8,0.8v15
			c0-0.2-0.1-0.4-0.2-0.5l-3.7-5.2l-4.5,3.8l1.9,2.6C3.7,16.7,3.9,16.8,4.2,16.8z"/>
	</g>
</g>
</svg>
